!!!OTL: KOMM FEIN LIEBCHEN KOMM ANS FENSTER
!!!ARE: Europa, Mitteleuropa, Deutschland
!!!SCT: B0411
!!!YEM: Copyright 1995, estate of Helmut Schaffrath.
**kern
*ICvox
*Ivox
*M6/8
*k[f#]
*G:
=1
{4g
8f#
4g
8f#
=2
4g
8a
4b
8g}
=3
{4dd
8cc#
4dd
8cc#
=4
4dd
2r}
=5
{4g
8f#
4g
8f#
=6
4g
8a
4b
8g}
=7
{4cc
8b
4cc
8dd
=8
4ee
8r}
{4.gg
=9
8gg
8dd
8b
8dd
8cc
8a
=10
4g
2r}
==
!!!AGN: Liebes - Lied, Liebes - Lust
!!!ONB: ESAC (Essen Associative Code) Database: BOEHME
!!!AMT: compound duple
!!!AIN: vox
!!!EED: Helmut Schaffrath
!!!EEV: 1.0
*-
